static/img/kroki/c5152e67ecc1d4cef48d0e3f360f6a2f.svg

<?xml version="1.0" encoding="us-ascii" standalone="no"?><svg xmlns="http://www.w3.org/2000/svg" xmlns:xlink="http://www.w3.org/1999/xlink" contentStyleType="text/css" height="573px" preserveAspectRatio="none" style="width:332px;height:573px;" version="1.1" viewBox="0 0 332 573" width="332px" zoomAndPan="magnify"><defs/><g><!--class aws_resource--><g id="elem_aws_resource"><rect codeLine="23" fill="#3D176E" height="39.7891" id="aws_resource" rx="2.5" ry="2.5" style="stroke:#000D19;stroke-width:0.5;" width="155" x="7" y="267.58"/><ellipse cx="22" cy="287.4745" fill="#ADD1B2" rx="11" ry="11" style="stroke:#181818;stroke-width:1.0;"/><path d="M24.9688,293.1152 Q24.3906,293.412 23.75,293.5527 Q23.1094,293.7089 22.4063,293.7089 Q19.9063,293.7089 18.5781,292.0683 Q17.2656,290.412 17.2656,287.287 Q17.2656,284.162 18.5781,282.5058 Q19.9063,280.8495 22.4063,280.8495 Q23.1094,280.8495 23.75,281.0058 Q24.4063,281.162 24.9688,281.4589 L24.9688,284.1777 Q24.3438,283.5995 23.75,283.3339 Q23.1563,283.0527 22.5313,283.0527 Q21.1875,283.0527 20.5,284.1308 Q19.8125,285.1933 19.8125,287.287 Q19.8125,289.3808 20.5,290.4589 Q21.1875,291.5214 22.5313,291.5214 Q23.1563,291.5214 23.75,291.2558 Q24.3438,290.9745 24.9688,290.3964 L24.9688,293.1152 Z " fill="#000000"/><text fill="#D9B8FF" font-family="Helvetica" font-size="17" lengthAdjust="spacing" textLength="113" x="41" y="293.3598">aws_resource</text></g><!--class aws_service_quota--><g id="elem_aws_service_quota"><rect codeLine="26" fill="#3D176E" height="39.7891" id="aws_service_quota" rx="2.5" ry="2.5" style="stroke:#000D19;stroke-width:0.5;" width="199" x="36" y="528.16"/><ellipse cx="51" cy="548.0545" fill="#ADD1B2" rx="11" ry="11" style="stroke:#181818;stroke-width:1.0;"/><path d="M53.9688,553.6952 Q53.3906,553.992 52.75,554.1327 Q52.1094,554.2889 51.4063,554.2889 Q48.9063,554.2889 47.5781,552.6483 Q46.2656,550.992 46.2656,547.867 Q46.2656,544.742 47.5781,543.0858 Q48.9063,541.4295 51.4063,541.4295 Q52.1094,541.4295 52.75,541.5858 Q53.4063,541.742 53.9688,542.0389 L53.9688,544.7577 Q53.3438,544.1795 52.75,543.9139 Q52.1563,543.6327 51.5313,543.6327 Q50.1875,543.6327 49.5,544.7108 Q48.8125,545.7733 48.8125,547.867 Q48.8125,549.9608 49.5,551.0389 Q50.1875,552.1014 51.5313,552.1014 Q52.1563,552.1014 52.75,551.8358 Q53.3438,551.5545 53.9688,550.9764 L53.9688,553.6952 Z " fill="#000000"/><text fill="#D9B8FF" font-family="Helvetica" font-size="17" lengthAdjust="spacing" textLength="157" x="70" y="553.9398">aws_service_quota</text></g><!--class phantom_resource--><g id="elem_phantom_resource"><rect codeLine="29" fill="#3D176E" height="39.7891" id="phantom_resource" rx="2.5" ry="2.5" style="stroke:#000D19;stroke-width:0.5;" width="198" x="127.5" y="167.79"/><ellipse cx="142.5" cy="187.6845" fill="#ADD1B2" rx="11" ry="11" style="stroke:#181818;stroke-width:1.0;"/><path d="M145.4688,193.3252 Q144.8906,193.622 144.25,193.7627 Q143.6094,193.9189 142.9063,193.9189 Q140.4063,193.9189 139.0781,192.2783 Q137.7656,190.622 137.7656,187.497 Q137.7656,184.372 139.0781,182.7158 Q140.4063,181.0595 142.9063,181.0595 Q143.6094,181.0595 144.25,181.2158 Q144.9063,181.372 145.4688,181.6689 L145.4688,184.3877 Q144.8438,183.8095 144.25,183.5439 Q143.6563,183.2627 143.0313,183.2627 Q141.6875,183.2627 141,184.3408 Q140.3125,185.4033 140.3125,187.497 Q140.3125,189.5908 141,190.6689 Q141.6875,191.7314 143.0313,191.7314 Q143.6563,191.7314 144.25,191.4658 Q144.8438,191.1845 145.4688,190.6064 L145.4688,193.3252 Z " fill="#000000"/><text fill="#D9B8FF" font-family="Helvetica" font-size="17" lengthAdjust="spacing" textLength="156" x="161.5" y="193.5698">phantom_resource</text></g><!--class quota--><g id="elem_quota"><rect codeLine="32" fill="#3D176E" height="39.7891" id="quota" rx="2.5" ry="2.5" style="stroke:#000D19;stroke-width:0.5;" width="90" x="161.5" y="367.37"/><ellipse cx="176.5" cy="387.2645" fill="#ADD1B2" rx="11" ry="11" style="stroke:#181818;stroke-width:1.0;"/><path d="M179.4688,392.9052 Q178.8906,393.202 178.25,393.3427 Q177.6094,393.4989 176.9063,393.4989 Q174.4063,393.4989 173.0781,391.8583 Q171.7656,390.202 171.7656,387.077 Q171.7656,383.952 173.0781,382.2958 Q174.4063,380.6395 176.9063,380.6395 Q177.6094,380.6395 178.25,380.7958 Q178.9063,380.952 179.4688,381.2489 L179.4688,383.9677 Q178.8438,383.3895 178.25,383.1239 Q177.6563,382.8427 177.0313,382.8427 Q175.6875,382.8427 175,383.9208 Q174.3125,384.9833 174.3125,387.077 Q174.3125,389.1708 175,390.2489 Q175.6875,391.3114 177.0313,391.3114 Q177.6563,391.3114 178.25,391.0458 Q178.8438,390.7645 179.4688,390.1864 L179.4688,392.9052 Z " fill="#000000"/><text fill="#D9B8FF" font-family="Helvetica" font-size="17" lengthAdjust="spacing" textLength="48" x="195.5" y="393.1498">quota</text></g><!--class resource--><g id="elem_resource"><rect codeLine="35" fill="#3D176E" height="39.7891" id="resource" rx="2.5" ry="2.5" style="stroke:#000D19;stroke-width:0.5;" width="113" x="53" y="7"/><ellipse cx="68" cy="26.8945" fill="#ADD1B2" rx="11" ry="11" style="stroke:#181818;stroke-width:1.0;"/><path d="M70.9688,32.5352 Q70.3906,32.832 69.75,32.9727 Q69.1094,33.1289 68.4063,33.1289 Q65.9063,33.1289 64.5781,31.4883 Q63.2656,29.832 63.2656,26.707 Q63.2656,23.582 64.5781,21.9258 Q65.9063,20.2695 68.4063,20.2695 Q69.1094,20.2695 69.75,20.4258 Q70.4063,20.582 70.9688,20.8789 L70.9688,23.5977 Q70.3438,23.0195 69.75,22.7539 Q69.1563,22.4727 68.5313,22.4727 Q67.1875,22.4727 66.5,23.5508 Q65.8125,24.6133 65.8125,26.707 Q65.8125,28.8008 66.5,29.8789 Q67.1875,30.9414 68.5313,30.9414 Q69.1563,30.9414 69.75,30.6758 Q70.3438,30.3945 70.9688,29.8164 L70.9688,32.5352 Z " fill="#000000"/><text fill="#D9B8FF" font-family="Helvetica" font-size="17" lengthAdjust="spacing" textLength="71" x="87" y="32.7798">resource</text></g><!--reverse link resource to aws_resource--><g id="link_resource_aws_resource"><path codeLine="38" d="M105.9288,64.8266 C101.3188,112.5366 91.03,218.98 86.37,267.08 " fill="none" id="resource-backto-aws_resource" style="stroke:#FFAF37;stroke-width:2.0;"/><polygon fill="none" points="107.66,46.91,99.9566,64.2495,111.901,65.4036,107.66,46.91" style="stroke:#FFAF37;stroke-width:2.0;"/></g><!--reverse link aws_resource to aws_service_quota--><g id="link_aws_resource_aws_service_quota"><path codeLine="39" d="M91.7338,325.1496 C101.1438,372.8496 122.19,479.56 131.68,527.66 " fill="none" id="aws_resource-backto-aws_service_quota" style="stroke:#FFAF37;stroke-width:2.0;"/><polygon fill="none" points="88.25,307.49,85.8473,326.3109,97.6203,323.9884,88.25,307.49" style="stroke:#FFAF37;stroke-width:2.0;"/></g><!--reverse link quota to aws_service_quota--><g id="link_quota_aws_service_quota"><path codeLine="40" d="M190.5911,423.8515 C176.9411,454.3715 157.76,497.27 144.09,527.83 " fill="none" id="quota-backto-aws_service_quota" style="stroke:#FFAF37;stroke-width:2.0;"/><polygon fill="none" points="197.94,407.42,185.1139,421.4018,196.0682,426.3011,197.94,407.42" style="stroke:#FFAF37;stroke-width:2.0;"/></g><!--reverse link resource to phantom_resource--><g id="link_resource_phantom_resource"><path codeLine="41" d="M134.2881,61.5406 C156.7781,92.0606 189.82,136.9 212.34,167.47 " fill="none" id="resource-backto-phantom_resource" style="stroke:#FFAF37;stroke-width:2.0;"/><polygon fill="none" points="123.61,47.05,129.4579,65.1,139.1183,57.9813,123.61,47.05" style="stroke:#FFAF37;stroke-width:2.0;"/></g><!--reverse link phantom_resource to quota--><g id="link_phantom_resource_quota"><path codeLine="42" d="M222.7341,225.8982 C218.9041,263.6682 212.29,329.05 208.46,366.88 " fill="none" id="phantom_resource-backto-quota" style="stroke:#FFAF37;stroke-width:2.0;"/><polygon fill="none" points="224.55,207.99,216.7647,225.2928,228.7034,226.5035,224.55,207.99" style="stroke:#FFAF37;stroke-width:2.0;"/></g><!--SRC=[XP1DJm8n48Rl_HLDE9E0H8742v8OlH0ZticmdR8Dk-qwdONWntzNNCLkoyUnypupyqnper1YMV5EbbWkaRpmQsCh82ZbXCXjfwvm93jQWnuCu_3UMRu8pA14-O351jba41ClkSdM5hsNLq5q1zbwHQwsgXdF1DP_HsWveAO5U3zX9hEi6GCPDLwEj8x9U6XdeFh36qmmHmhf5-drUge_Zf6BgyxUVI3cvWrbF_oqcMDCD9CLFzHPopqHI2Q7_kKd7Pz0AMDNyZgeFJTEP95QzNaEocttj8R2Xsiy8w7ZNONJv2eSZvGU7eKVJy4Yst-TXArV47fNKuRoNOZFeEwHDYR3nMlj6CAmoi6oAuys9d0REhnkFxhTRckzQBdyvoqDqSm_bKRjiQX8p1kkQVu2]--></g></svg>

<svg xmlns="http://www.w3.org/2000/svg" width="332" height="573" viewBox="0 0 332 573"><rect width="155" height="39.789" x="7" y="267.58" fill="#3D176E" rx="2.5" ry="2.5" style="stroke:#000d19;stroke-width:.5"/><circle cx="22" cy="287.474" r="11" fill="#ADD1B2" style="stroke:#181818;stroke-width:1"/><path d="M24.969 293.115q-.578.297-1.219.438-.64.156-1.344.156-2.5 0-3.828-1.64-1.312-1.657-1.312-4.782t1.312-4.781q1.328-1.656 3.828-1.656.703 0 1.344.156.656.156 1.219.453v2.719q-.625-.579-1.219-.844-.594-.281-1.219-.281-1.343 0-2.031 1.078-.687 1.062-.687 3.156t.687 3.172q.688 1.062 2.031 1.062.625 0 1.219-.265.594-.281 1.219-.86z"/><text x="41" y="293.36" fill="#D9B8FF" font-family="Helvetica" font-size="17" textLength="113">aws_resource</text><rect width="199" height="39.789" x="36" y="528.16" fill="#3D176E" rx="2.5" ry="2.5" style="stroke:#000d19;stroke-width:.5"/><circle cx="51" cy="548.054" r="11" fill="#ADD1B2" style="stroke:#181818;stroke-width:1"/><path d="M53.969 553.695q-.578.297-1.219.438-.64.156-1.344.156-2.5 0-3.828-1.64-1.312-1.657-1.312-4.782t1.312-4.781q1.328-1.657 3.828-1.657.703 0 1.344.157.656.156 1.219.453v2.719q-.625-.579-1.219-.844-.594-.281-1.219-.281-1.343 0-2.031 1.078-.687 1.062-.687 3.156t.687 3.172q.688 1.062 2.031 1.062.625 0 1.219-.265.594-.282 1.219-.86z"/><text x="70" y="553.94" fill="#D9B8FF" font-family="Helvetica" font-size="17" textLength="157">aws_service_quota</text><rect width="198" height="39.789" x="127.5" y="167.79" fill="#3D176E" rx="2.5" ry="2.5" style="stroke:#000d19;stroke-width:.5"/><circle cx="142.5" cy="187.685" r="11" fill="#ADD1B2" style="stroke:#181818;stroke-width:1"/><path d="M145.469 193.325q-.578.297-1.219.438-.64.156-1.344.156-2.5 0-3.828-1.64-1.312-1.657-1.312-4.782t1.312-4.781q1.328-1.656 3.828-1.656.703 0 1.344.156.656.156 1.219.453v2.719q-.625-.578-1.219-.844-.594-.281-1.219-.281-1.344 0-2.031 1.078-.687 1.062-.687 3.156t.687 3.172q.688 1.062 2.031 1.062.625 0 1.219-.265.594-.281 1.219-.86z"/><text x="161.5" y="193.57" fill="#D9B8FF" font-family="Helvetica" font-size="17" textLength="156">phantom_resource</text><rect width="90" height="39.789" x="161.5" y="367.37" fill="#3D176E" rx="2.5" ry="2.5" style="stroke:#000d19;stroke-width:.5"/><circle cx="176.5" cy="387.264" r="11" fill="#ADD1B2" style="stroke:#181818;stroke-width:1"/><path d="M179.469 392.905q-.578.297-1.219.438-.64.156-1.344.156-2.5 0-3.828-1.64-1.312-1.657-1.312-4.782t1.312-4.781q1.328-1.656 3.828-1.656.703 0 1.344.156.656.156 1.219.453v2.719q-.625-.579-1.219-.844-.594-.281-1.219-.281-1.344 0-2.031 1.078-.687 1.062-.687 3.156t.687 3.172q.688 1.062 2.031 1.062.625 0 1.219-.265.594-.281 1.219-.86z"/><text x="195.5" y="393.15" fill="#D9B8FF" font-family="Helvetica" font-size="17" textLength="48">quota</text><rect width="113" height="39.789" x="53" y="7" fill="#3D176E" rx="2.5" ry="2.5" style="stroke:#000d19;stroke-width:.5"/><circle cx="68" cy="26.895" r="11" fill="#ADD1B2" style="stroke:#181818;stroke-width:1"/><path d="M70.969 32.535q-.578.297-1.219.438-.64.156-1.344.156-2.5 0-3.828-1.64-1.312-1.657-1.312-4.782t1.312-4.781q1.328-1.656 3.828-1.656.703 0 1.344.156.656.156 1.219.453v2.719q-.625-.578-1.219-.844-.594-.281-1.219-.281-1.344 0-2.031 1.078-.687 1.062-.687 3.156t.687 3.172q.688 1.062 2.031 1.062.625 0 1.219-.265.594-.281 1.219-.86z"/><text x="87" y="32.78" fill="#D9B8FF" font-family="Helvetica" font-size="17" textLength="71">resource</text><g fill="none"><path d="M105.929 64.827c-4.61 47.71-14.899 154.153-19.559 202.253" style="stroke:#ffaf37;stroke-width:2"/><path d="m107.66 46.91-7.703 17.34 11.944 1.154z" style="stroke:#ffaf37;stroke-width:2"/></g><path fill="none" d="M91.734 325.15c9.41 47.7 30.456 154.41 39.946 202.51M88.25 307.49l-2.403 18.82 11.773-2.322z" style="stroke:#ffaf37;stroke-width:2"/><g fill="none"><path d="M190.591 423.852c-13.65 30.52-32.831 73.418-46.501 103.978" style="stroke:#ffaf37;stroke-width:2"/><path d="m197.94 407.42-12.826 13.982 10.954 4.9z" style="stroke:#ffaf37;stroke-width:2"/></g><g fill="none"><path d="M134.288 61.54c22.49 30.52 55.532 75.36 78.052 105.93" style="stroke:#ffaf37;stroke-width:2"/><path d="m123.61 47.05 5.848 18.05 9.66-7.119z" style="stroke:#ffaf37;stroke-width:2"/></g><g fill="none"><path d="M222.734 225.898c-3.83 37.77-10.444 103.152-14.274 140.982" style="stroke:#ffaf37;stroke-width:2"/><path d="m224.55 207.99-7.785 17.303 11.938 1.21z" style="stroke:#ffaf37;stroke-width:2"/></g></svg>
